X:99
T:Mrs. McGhee
Z: id:dc-jig-177
M:6/8
L:1/8
K:G Mixolydian
F|G3 B3|dBG Gef|cAF FEF|c2d cBA|!
G3 B3|dBG Gef|cBc edc|dBG G2:|!
D|GBd gab|ag^f g2B|cAF FEF|c2d cBA|!
GBd gab|ag^f g2B|cBc edc|dBG G2D|!
GBd gab|ag^f g2B|cAF FEF|c2d cga|!
bgb afa|gfe d2B|cBc edc|dBG G2|]!

